X:246
T:Stayley Bridge Hornpipe. Le4.246
L:1/8
B:L.Leadley MS#4 c1850
Z:vmp.Mike Hicken 2016 www.village-music-project.org.uk
N: This is tune 36 in The Fiddler of Helperby under the title of Slayley Bridge Hornpipe.
M:C|
Q:1/4=120
K:A
ef/g/|aece Acea|fdcB A2 Bc|defe dcBA|cdef e2 ef/g/|
aece Acea|fdcB A2 Bc|dfed cABG|A2c2A2 :|
|:ed|ceAe ceAe|dfBf dfBf|ceAe ceAe|GBEB GBEB|
ceAe ceAe|dfBf dfBf|eagf edcB|A2c2A2 :|

